modules/hawcons-stroke/icons/icon-35-medal.svg

<?xml version="1.0" encoding="UTF-8" standalone="no"?>
<svg width="32px" height="32px" viewBox="0 0 32 32" version="1.1" xmlns="http://www.w3.org/2000/svg" xmlns:xlink="http://www.w3.org/1999/xlink" xmlns:sketch="http://www.bohemiancoding.com/sketch/ns">
    <!-- Generator: Sketch 3.0.3 (7891) - http://www.bohemiancoding.com/sketch -->
    <title>icon 35 medal</title>
    <desc>Created with Sketch.</desc>
    <defs></defs>
    <g id="Page-1" stroke="none" stroke-width="1" fill="none" fill-rule="evenodd" sketch:type="MSPage">
        <g id="icon-35-medal" sketch:type="MSArtboardGroup" fill="#929292">
            <path d="M15.2520612,12.6055786 L10.5631031,1 L9.63591927,1.37460659 L9.63591927,1.37460659 L14.229839,12.744957 C12.878115,13.0090788 11.6346778,13.5757665 10.5729182,14.3716291 L5.92718385,2.87303297 L5,3.24763956 L9.76882888,15.0509052 C8.04224028,16.6907475 6.96570761,19.0085043 6.96570761,21.5776987 C6.96570761,26.5482614 10.9951449,30.5776987 15.9657076,30.5776987 C20.9362704,30.5776987 24.9657076,26.5482614 24.9657076,21.5776987 C24.9657076,19.0053149 23.8865004,16.6849934 22.1561531,15.0448012 L26.9225158,3.24763956 L25.9937938,2.87241149 L25.9937938,2.87241149 L21.3502906,14.3654851 C20.2877363,13.5709084 19.0437413,13.005635 17.6916674,12.7430266 L22.2850584,1.37398512 L21.3594127,1 L16.6707264,12.6049059 C16.4380884,12.5868797 16.2029702,12.5776987 15.9657076,12.5776987 C15.7255116,12.5776987 15.4875133,12.5871082 15.2520612,12.6055786 L15.2520612,12.6055786 L15.2520612,12.6055786 Z M15.9657076,29.5776987 C20.3839856,29.5776987 23.9657076,25.9959767 23.9657076,21.5776987 C23.9657076,17.1594207 20.3839856,13.5776987 15.9657076,13.5776987 C11.5474296,13.5776987 7.96570761,17.1594207 7.96570761,21.5776987 C7.96570761,25.9959767 11.5474296,29.5776987 15.9657076,29.5776987 L15.9657076,29.5776987 Z M15.9657076,27.5776987 C19.2794161,27.5776987 21.9657076,24.8914072 21.9657076,21.5776987 C21.9657076,18.2639902 19.2794161,15.5776987 15.9657076,15.5776987 C12.6519991,15.5776987 9.96570761,18.2639902 9.96570761,21.5776987 C9.96570761,24.8914072 12.6519991,27.5776987 15.9657076,27.5776987 L15.9657076,27.5776987 Z M15.9657076,26.5776987 C18.7271314,26.5776987 20.9657076,24.3391224 20.9657076,21.5776987 C20.9657076,18.8162749 18.7271314,16.5776987 15.9657076,16.5776987 C13.2042839,16.5776987 10.9657076,18.8162749 10.9657076,21.5776987 C10.9657076,24.3391224 13.2042839,26.5776987 15.9657076,26.5776987 L15.9657076,26.5776987 Z" id="medal" sketch:type="MSShapeGroup"></path>
        </g>
    </g>
</svg>

<svg width="32" height="32" xmlns="http://www.w3.org/2000/svg"><path d="M15.252 12.606L10.563 1l-.927.375 4.594 11.37a8.958 8.958 0 0 0-3.657 1.627L5.927 2.873 5 3.248 9.769 15.05a9 9 0 1 0 12.387-.006l4.767-11.797-.93-.376-4.643 11.493a8.957 8.957 0 0 0-3.658-1.622l4.593-11.369L21.36 1l-4.688 11.605a9.125 9.125 0 0 0-1.419 0zm.714 16.972a8 8 0 1 0 0-16 8 8 0 0 0 0 16zm0-2a6 6 0 1 0 0-12 6 6 0 0 0 0 12zm0-1a5 5 0 1 0 0-10 5 5 0 0 0 0 10z" fill="#929292" fill-rule="evenodd"/></svg>
